X: 1722
T: Bill Ellis' Hornpipe   #3
R: hornpipe, reel
%S: s:2 b:10(6+4)
B: O'Neill's 1850 #1722
O: J.O'Neill
Z: Bob Safranek, rjs@gsp.org
Z: A.LEE WORMAN
M: C|
L: 1/8
N: Compacted by using labels and play order [JC]
P: Play (A1A2)x2+(BA2)x2
K: A
"^A"[|]c>d | e>^de>c a>ga>e | c'>bc'>e a>ga>e |[1 f>gf>e d>cB>A | (3EGB (3egb e'2 :|[2 (3fag (3fed c>BA>G | B2A2 A2 |]
"^B"[| B>c | d>cd>B (3bag (3fed | c>Bc>A (3agf (3edc | B>AB>d (3gfe (3dcB | A>ce>f e2 |]
